assets/img/braze_icons/package-minus.svg

<svg fill="none" height="24" viewBox="0 0 24 24" width="24" xmlns="http://www.w3.org/2000/svg"><g fill="#801ed7"><path clip-rule="evenodd" d="m16 18c0-.5523.4477-1 1-1h6c.5523 0 1 .4477 1 1s-.4477 1-1 1h-6c-.5523 0-1-.4477-1-1z" fill-rule="evenodd"/><path d="m11.5971 1.18505c.2658-.05467.54-.05467.8058 0 .3073.06319.5819.21702.8003.33931l.0595.03325c1.7629.9794 4.7452 2.63705 6.4266 3.57165.4082.22693.6124.34039.6806.49035.0594.13073.0598.28072.001.41175-.0674.1503-.2712.26489-.6786.49408l-2.3291 1.31011-8.96282-4.97936 2.33692-1.29858.0595-.03325c.2184-.12229.493-.27612.8003-.33931z"/><path d="m6.34168 4.00039 8.97522 4.98622-2.9247 1.64519c-.1431.0804-.2146.1207-.2905.1365-.0671.0139-.1364.0139-.2035 0-.0758-.0158-.1474-.0561-.2904-.1365l-7.30011-4.10635c-.40744-.22918-.61116-.34378-.67862-.49408-.0588-.13103-.05842-.28102.00105-.41175.06821-.14995.27233-.26342.68058-.49034z"/><path d="m21.9959 8.89013c-.0004-.44833-.0006-.67249-.0951-.80338-.0825-.11419-.2093-.1883-.3493-.20408-.1604-.0181-.3562.09202-.7477.31226l-7.396 4.16027c-.1485.0835-.2227.1253-.2767.1843-.0478.0523-.084.1141-.1061.1814-.025.076-.025.1612-.025.3315v8.1753c0 .4472 0 .6708.094.8016.0821.1141.2083.1884.3479.2047.16.0187.3549-.0895.7446-.3059.0912-.0506.1865-.1035.2855-.1585.4993-.2773.749-.4159.8176-.5277.0829-.1349.0906-.1712.0696-.3281-.0174-.1299-.2636-.4563-.7559-1.1091-.3787-.5022-.6033-1.1272-.6033-1.8047 0-1.6569 1.3431-3 3-3h4.1996c.2801 0 .4201 0 .5271-.0545.0941-.048.1706-.1245.2185-.2186.0545-.107.0544-.247.0543-.527-.0008-1.8187-.0025-3.9534-.0036-5.30977z"/><path d="m9.81351 21.9281c.38969.2164.58459.3246.74459.3059.1396-.0163.2658-.0906.3479-.2047.094-.1308.094-.3544.094-.8016v-8.1752c0-.1704 0-.2555-.025-.3316-.0221-.0673-.0583-.1291-.1061-.1813-.054-.0591-.1282-.1009-.2767-.1844l-7.39596-4.16024c-.39154-.22024-.5873-.33036-.74775-.31227-.13997.01579-.26681.0899-.34928.20408-.09455.13089-.09473.35506-.09511.8034-.00156 1.86613-.0041 5.20543-.0041 7.16843l-.00018.0722c-.00096.2638-.00217.5956.10115.9083.08933.2704.23535.5185.4283.7279.22316.2422.51376.4022.74489.5296l.06317.0348c1.78119.9896 4.80982 2.6714 6.47618 3.5967z"/></g></svg>

<svg width="24" height="24" viewBox="0 0 24 24" fill="none" xmlns="http://www.w3.org/2000/svg">
<path fill-rule="evenodd" clip-rule="evenodd" d="M16 18C16 17.4477 16.4477 17 17 17H23C23.5523 17 24 17.4477 24 18C24 18.5523 23.5523 19 23 19H17C16.4477 19 16 18.5523 16 18Z" fill="#801ED7"/>
<path d="M11.5971 1.18505C11.8629 1.13038 12.1371 1.13038 12.4029 1.18505C12.7102 1.24824 12.9848 1.40207 13.2032 1.52436L13.2627 1.55761C15.0256 2.53701 18.0079 4.19466 19.6893 5.12926C20.0975 5.35619 20.3017 5.46965 20.3699 5.61961C20.4293 5.75034 20.4297 5.90033 20.3709 6.03136C20.3035 6.18166 20.0997 6.29625 19.6923 6.52544L17.3632 7.83555L8.40038 2.85619L10.7373 1.55761L10.7968 1.52436C11.0152 1.40207 11.2898 1.24824 11.5971 1.18505Z" fill="#801ED7"/>
<path d="M6.34168 4.00039L15.3169 8.98661L12.3922 10.6318C12.2491 10.7122 12.1776 10.7525 12.1017 10.7683C12.0346 10.7822 11.9653 10.7822 11.8982 10.7683C11.8224 10.7525 11.7508 10.7122 11.6078 10.6318L4.30769 6.52545C3.90025 6.29627 3.69653 6.18167 3.62907 6.03137C3.57027 5.90034 3.57065 5.75035 3.63012 5.61962C3.69833 5.46967 3.90245 5.3562 4.3107 5.12928L6.34168 4.00039Z" fill="#801ED7"/>
<path d="M21.9959 8.89013C21.9955 8.4418 21.9953 8.21764 21.9008 8.08675C21.8183 7.97256 21.6915 7.89845 21.5515 7.88267C21.3911 7.86457 21.1953 7.97469 20.8038 8.19493L13.4078 12.3552C13.2593 12.4387 13.1851 12.4805 13.1311 12.5395C13.0833 12.5918 13.0471 12.6536 13.025 12.7209C13 12.7969 13 12.8821 13 13.0524V21.2277C13 21.6749 13 21.8985 13.094 22.0293C13.1761 22.1434 13.3023 22.2177 13.4419 22.234C13.6019 22.2527 13.7968 22.1445 14.1865 21.9281C14.2777 21.8775 14.373 21.8246 14.472 21.7696C14.9713 21.4923 15.221 21.3537 15.2896 21.2419C15.3725 21.107 15.3802 21.0707 15.3592 20.9138C15.3418 20.7839 15.0956 20.4575 14.6033 19.8047C14.2246 19.3025 14 18.6775 14 18C14 16.3431 15.3431 15 17 15H21.1996C21.4797 15 21.6197 15 21.7267 14.9455C21.8208 14.8975 21.8973 14.821 21.9452 14.7269C21.9997 14.6199 21.9996 14.4799 21.9995 14.1999C21.9987 12.3812 21.997 10.2465 21.9959 8.89013Z" fill="#801ED7"/>
<path d="M9.81351 21.9281C10.2032 22.1445 10.3981 22.2527 10.5581 22.234C10.6977 22.2177 10.8239 22.1434 10.906 22.0293C11 21.8985 11 21.6749 11 21.2277V13.0525C11 12.8821 11 12.797 10.975 12.7209C10.9529 12.6536 10.9167 12.5918 10.8689 12.5396C10.8149 12.4805 10.7407 12.4387 10.5922 12.3552L3.19624 8.19496C2.8047 7.97472 2.60894 7.8646 2.44849 7.88269C2.30852 7.89848 2.18168 7.97259 2.09921 8.08677C2.00466 8.21766 2.00448 8.44183 2.0041 8.89017C2.00254 10.7563 2 14.0956 2 16.0586L1.99982 16.1308C1.99886 16.3946 1.99765 16.7264 2.10097 17.0391C2.1903 17.3095 2.33632 17.5576 2.52927 17.767C2.75243 18.0092 3.04303 18.1692 3.27416 18.2966L3.33733 18.3314C5.11852 19.321 8.14715 21.0028 9.81351 21.9281Z" fill="#801ED7"/>
</svg>
